src/assets/duotone/RulerOpen.svg

<svg width="24" height="24" viewBox="0 0 24 24"  xmlns="http://www.w3.org/2000/svg">
<path opacity="0.4" d="M21.4702 5V19C21.4702 20.66 20.1202 22 18.4702 22H14.4702C12.8102 22 11.4702 20.66 11.4702 19V5C11.4702 3.34 12.8102 2 14.4702 2H18.4702C20.1202 2 21.4702 3.34 21.4702 5Z" />
<path d="M17.2202 6C17.2202 6.41 16.8802 6.75 16.4702 6.75H11.4702V5.25H16.4702C16.8802 5.25 17.2202 5.59 17.2202 6Z" />
<path d="M16.1202 18C16.1202 18.41 15.7902 18.75 15.3702 18.75H11.4702V17.25H15.3702C15.7902 17.25 16.1202 17.59 16.1202 18Z" />
<path d="M17.2202 14.0102C17.2102 14.4202 16.8802 14.7502 16.4702 14.7502C16.4602 14.7502 16.4602 14.7502 16.4602 14.7502L11.4702 14.7002V13.2002L16.4702 13.2502C16.8902 13.2502 17.2202 13.5902 17.2202 14.0102Z" />
<path d="M15.0302 10C15.0302 10.41 14.6902 10.75 14.2802 10.75H11.4702V9.25H14.2802C14.6902 9.25 15.0302 9.59 15.0302 10Z" />
<path opacity="0.4" d="M8.43979 4.95V17.91C8.43979 18.36 8.24979 19.05 8.01979 19.43L7.19979 20.79C6.25979 22.37 4.71979 22.37 3.76979 20.79L2.95979 19.43C2.71979 19.05 2.52979 18.36 2.52979 17.91V4.95C2.52979 3.33 3.85978 2 5.48978 2C7.10979 2 8.43979 3.33 8.43979 4.95Z" />
<path d="M8.43979 6.25H2.52979V7.75H8.43979V6.25Z" />
</svg>

<?xml version="1.0" encoding="UTF-8"?>
<svg width="24" height="24" viewBox="0 0 24 24" xmlns="http://www.w3.org/2000/svg">
 <path d="m21.47 5v14c0 1.66-1.35 3-3 3h-4c-1.66 0-3-1.34-3-3v-14c0-1.66 1.34-3 3-3h4c1.65 0 3 1.34 3 3z" opacity=".4"/>
 <path d="m17.22 6c0 0.41-0.34 0.75-0.75 0.75h-5v-1.5h5c0.41 0 0.75 0.34 0.75 0.75z"/>
 <path d="m16.12 18c0 0.41-0.33 0.75-0.75 0.75h-3.9v-1.5h3.9c0.42 0 0.75 0.34 0.75 0.75z"/>
 <path d="m17.22 14.01c-0.01 0.41-0.34 0.74-0.75 0.74h-0.01l-4.99-0.05v-1.5l5 0.05c0.42 0 0.75 0.34 0.75 0.76z"/>
 <path d="m15.03 10c0 0.41-0.34 0.75-0.75 0.75h-2.81v-1.5h2.81c0.41 0 0.75 0.34 0.75 0.75z"/>
 <path d="m8.4398 4.95v12.96c0 0.45-0.19 1.14-0.42 1.52l-0.82 1.36c-0.94 1.58-2.48 1.58-3.43 0l-0.81-1.36c-0.24-0.38-0.43-1.07-0.43-1.52v-12.96c0-1.62 1.33-2.95 2.96-2.95 1.62 0 2.95 1.33 2.95 2.95z" opacity=".4"/>
 <path d="m8.4398 6.25h-5.91v1.5h5.91v-1.5z"/>
</svg>
